X:169
T:Old Times & New - Langworthy
%%VWML:SBG-1-2-808-0
F:http://www.vwml.org/record/SBG/1/2/808
Z:Original Sibelius transcriptions by M. & S. Graebe
M:4/4
I:linebreak $
K:F
V:1 treble nm="P1"
V:1
 C | C F F F | (E G) G z/ E/ | F A c3/2 A/ | B z z c | d c (c/B/) A | A/A/ G F G/<G/ |$ %7
 B A G z/ C/ | C F F F | E G G z/ F/ | F A c A | B z z c | d c c B | B A G F |$ F A c F | %15
 (F{/GF} E) z C/"^chorus" C/ | C F F F | E G G F | F A c A |$ B3/2 z/ z z/ c/ | d c B A | %21
 (B A) G F | F A !fermata!c3/2 E/ | F2 z x | %24

